X:1
T:Silver Dollar
M:4/4
L:1/8
K:D
 A,3/2 A,/2| F3/2 ^E/2 F3/2 ^E/2 F3/2 ^E/2 F2| F3/2 F/2 ^E3/2 F/2 G3/2 G/2 F3/2 F/2|\
 E2- B,2- E3/2 E/2 F3/2 E/2| E2- B,2- E3 ^D| E3/2 ^D/2 E3/2 ^D/2 E2 E3/2 ^D/2|\
 E E2 E F2 E2| D2 D2 B,2 B,2| A,6 A,2| F F3 z ^E F3/2 ^E/2| F3/2 ^E/2 F G3 F2|\
 E2 E3 FE D| B,6 B,3/2 B,/2| D D3 EE EE| F2 F2 G2 G3/2 G/2| F3/2 D/2 B,3/2 A,/2 F2 F2|\
 D6||
